X: 34223
T: Reel St. Jean
R: reel
M: 4/4
K: Eminor
GE (3EEE B,E (3EEE|GBEG B2AG|FD (3DDD A,D (3DDD|FADF A2BA|
GE (3EEE B,E (3EEE|GBEG B2 (3FED|~E3F A2BA|1 GEFD E2BA:|2 GEFD E2EF||
|:G2GF GABc|d2de dBAG|g2e2 dBAG|AGAB AGED|
G2GF GABc|d2de dBAG|g2e2 dBAG|1 AGAB G2EF:|2 AGAB G2BA||

